frontend/src/assets/figma/downloaded/hero-vector-group.svg

<svg preserveAspectRatio="none" width="100%" height="100%" overflow="visible" style="display: block;" viewBox="0 0 415 147.255" fill="none" xmlns="http://www.w3.org/2000/svg">
<g id="Group 12220">
<path id="Vector" d="M305 124.746C320.438 126.025 334.712 131.39 346.736 139.757C350.087 142.085 353.263 144.572 356.238 147.255L415 147.255C414.478 146.094 413.92 144.927 413.356 143.752C405.463 127.38 394.059 113.009 380.126 101.605C359.568 84.7806 333.479 74.4053 305 73.627L305 124.753V124.746Z" fill="var(--fill-0, #FF3135)"/>
<path id="Vector_2" d="M305 51.1191C320.438 52.3978 334.712 57.7626 346.736 66.1296C350.087 68.4576 353.263 70.9455 356.238 73.6279L415 73.6279C414.478 72.4674 413.92 71.2999 413.356 70.1254C405.463 53.7529 394.059 39.3817 380.126 27.9779C359.568 11.1536 333.479 0.778322 305 0L305 51.126V51.1191Z" fill="var(--fill-0, #FF3135)"/>
<path id="Ellipse 238" d="M70.5 2.56445C61.2418 2.56445 52.0743 4.42679 43.5208 8.04513C34.9674 11.6635 27.1955 16.9669 20.649 23.6528C14.1024 30.3386 8.90945 38.2758 5.36649 47.0112C1.82354 55.7467 5.6664e-07 65.1093 8.58577e-07 74.5645C1.15051e-06 84.0196 1.82354 93.3822 5.36649 102.118C8.90945 110.853 14.1024 118.79 20.649 125.476C27.1955 132.162 34.9674 137.465 43.5208 141.084C52.0743 144.702 61.2418 146.564 70.5 146.564L70.5 74.5645L70.5 2.56445Z" fill="var(--fill-0, #FF3135)"/>
<path id="Ellipse 239" d="M125 2.56445C115.676 2.56445 106.444 4.42678 97.8295 8.04512C89.2154 11.6635 81.3884 16.9669 74.7954 23.6528C68.2025 30.3386 62.9726 38.2758 59.4046 47.0112C55.8365 55.7467 54 65.1093 54 74.5645C54 84.0196 55.8365 93.3822 59.4046 102.118C62.9726 110.853 68.2025 118.79 74.7954 125.476C81.3884 132.162 89.2154 137.465 97.8295 141.084C106.444 144.702 115.676 146.564 125 146.564L125 74.5645L125 2.56445Z" fill="var(--fill-0, #FF3135)"/>
</g>
</svg>

<svg xmlns="http://www.w3.org/2000/svg" fill="none" overflow="visible" preserveAspectRatio="none" style="display:block" viewBox="0 0 415 147.255"><g fill="var(--fill-0, #ff3135)"><path d="M305 124.746a85.25 85.25 0 0 1 41.736 15.011c3.351 2.328 6.527 4.815 9.502 7.498H415a156 156 0 0 0-1.644-3.503c-7.893-16.372-19.297-30.743-33.23-42.147-20.558-16.824-46.647-27.2-75.126-27.978v51.126zm0-73.626a85.25 85.25 0 0 1 41.736 15.01c3.351 2.328 6.527 4.816 9.502 7.498H415a158 158 0 0 0-1.644-3.503c-7.893-16.372-19.297-30.743-33.23-42.147C359.568 11.154 333.479.778 305 0v51.126zM70.5 2.564a69.2 69.2 0 0 0-26.98 5.481 70.4 70.4 0 0 0-22.87 15.608A72.1 72.1 0 0 0 5.366 47.01 73.3 73.3 0 0 0 0 74.564a73.3 73.3 0 0 0 5.366 27.554 72.1 72.1 0 0 0 15.283 23.358 70.4 70.4 0 0 0 22.872 15.608 69.2 69.2 0 0 0 26.979 5.48z"/><path d="M125 2.564a70.15 70.15 0 0 0-27.17 5.481 70.9 70.9 0 0 0-23.035 15.608 72.1 72.1 0 0 0-15.39 23.358A72.9 72.9 0 0 0 54 74.564a72.9 72.9 0 0 0 5.405 27.554 72.1 72.1 0 0 0 15.39 23.358 71 71 0 0 0 23.034 15.608 70.2 70.2 0 0 0 27.171 5.48z"/></g></svg>
